X:1
T:Dear Jesus Is the One I Love, LM
T:Anonymous, before 1900
T:Dear Jesus Is the One I Love, LM
T:Public Domain
C:Anonymous, before 1900
Z:Public Domain
%%score ( 1 2 ) 3
L:1/8
M:4/4
K:F
V:1 treble 
V:2 treble 
V:3 bass 
V:1
 [Fc]2!mf! | [FA]3 [Fc] F[FA][GB][FA] | (F2 ED) E2 [Ec]2 | [Ec]3 [F=B] [G_B][CE][FA][EG] | %4
 F6 [Fc]2 | [FA]3 [Fc] F[FA][FB][Fc] | [Fd]6 (ed) | [Fc]3 [Ed] [Be][Bd][GB][EG] | F6 |] %9
V:2
 x2 | x4 F x3 | G6 x2 | x8 | F6 x2 | x4 F x3 | x6 F2 | x8 | F6 |] %9
V:3
 [F,A,]2 | [F,C]3 [F,A,] [F,A,][F,C][F,C][F,C] | [C,C]6 [C,C]2 | %3
 [C,C]3 [D,G,] [E,G,][C,G,][C,C][C,B,] | [F,A,]6 [F,A,]2 | [F,C]3 [F,A,] [F,A,][E,C][D,B,][C,A,] | %6
 [B,,B,]6 [=B,,^G,]2 | [C,A,]3 [C,B,] [C,G,][C,G,][C,C][C,B,] | [F,A,]6 |] %9

